icon/ir/send-dollars.svg

<svg stroke-width="1.5" viewBox="0 0 24 24" fill="none" xmlns="http://www.w3.org/2000/svg" height="1em" width="1em">
  <path d="M10 8.23077C9.20085 7.49308 7.79346 6.97998 6.5 6.94785M3 15.2308C3.75189 16.1562 5.1499 16.684 6.5 16.7288M6.5 6.94785C4.96102 6.90962 3.58333 7.55229 3.58333 9.3077C3.58333 12.5385 10 10.9231 10 14.1538C10 15.9965 8.2922 16.7882 6.5 16.7288M6.5 6.94785V5M6.5 16.7288V19" stroke="currentColor" stroke-linecap="round" stroke-linejoin="round"/>
  <path d="M13 12H21M21 12L17.16 8M21 12L17.16 16" stroke="currentColor" stroke-linecap="round" stroke-linejoin="round"/>
</svg>

<svg width="24" height="24" stroke-width="1.5" fill="none" xmlns="http://www.w3.org/2000/svg"><path d="M10 8.23c-.8-.737-2.207-1.25-3.5-1.282M3 15.23c.752.925 2.15 1.453 3.5 1.498m0-9.781c-1.539-.038-2.917.604-2.917 2.36 0 3.23 6.417 1.615 6.417 4.846 0 1.842-1.708 2.634-3.5 2.575m0-9.781V5m0 11.729V19M13 12h8m0 0-3.84-4M21 12l-3.84 4" stroke="currentColor" stroke-linecap="round" stroke-linejoin="round"/></svg>
